assets/images/icons/src/film.svg

<?xml version="1.0" encoding="utf-8"?>
<!-- Generated by IcoMoon.io -->
<!DOCTYPE svg PUBLIC "-//W3C//DTD SVG 1.1//EN" "http://www.w3.org/Graphics/SVG/1.1/DTD/svg11.dtd">
<svg version="1.1" xmlns="http://www.w3.org/2000/svg" xmlns:xlink="http://www.w3.org/1999/xlink" width="15" height="14" viewBox="0 0 15 14">
<path fill="#444444" d="M3 12.5v-1q0-0.203-0.148-0.352t-0.352-0.148h-1q-0.203 0-0.352 0.148t-0.148 0.352v1q0 0.203 0.148 0.352t0.352 0.148h1q0.203 0 0.352-0.148t0.148-0.352zM3 9.5v-1q0-0.203-0.148-0.352t-0.352-0.148h-1q-0.203 0-0.352 0.148t-0.148 0.352v1q0 0.203 0.148 0.352t0.352 0.148h1q0.203 0 0.352-0.148t0.148-0.352zM3 6.5v-1q0-0.203-0.148-0.352t-0.352-0.148h-1q-0.203 0-0.352 0.148t-0.148 0.352v1q0 0.203 0.148 0.352t0.352 0.148h1q0.203 0 0.352-0.148t0.148-0.352zM11 12.5v-4q0-0.203-0.148-0.352t-0.352-0.148h-6q-0.203 0-0.352 0.148t-0.148 0.352v4q0 0.203 0.148 0.352t0.352 0.148h6q0.203 0 0.352-0.148t0.148-0.352zM3 3.5v-1q0-0.203-0.148-0.352t-0.352-0.148h-1q-0.203 0-0.352 0.148t-0.148 0.352v1q0 0.203 0.148 0.352t0.352 0.148h1q0.203 0 0.352-0.148t0.148-0.352zM14 12.5v-1q0-0.203-0.148-0.352t-0.352-0.148h-1q-0.203 0-0.352 0.148t-0.148 0.352v1q0 0.203 0.148 0.352t0.352 0.148h1q0.203 0 0.352-0.148t0.148-0.352zM11 6.5v-4q0-0.203-0.148-0.352t-0.352-0.148h-6q-0.203 0-0.352 0.148t-0.148 0.352v4q0 0.203 0.148 0.352t0.352 0.148h6q0.203 0 0.352-0.148t0.148-0.352zM14 9.5v-1q0-0.203-0.148-0.352t-0.352-0.148h-1q-0.203 0-0.352 0.148t-0.148 0.352v1q0 0.203 0.148 0.352t0.352 0.148h1q0.203 0 0.352-0.148t0.148-0.352zM14 6.5v-1q0-0.203-0.148-0.352t-0.352-0.148h-1q-0.203 0-0.352 0.148t-0.148 0.352v1q0 0.203 0.148 0.352t0.352 0.148h1q0.203 0 0.352-0.148t0.148-0.352zM14 3.5v-1q0-0.203-0.148-0.352t-0.352-0.148h-1q-0.203 0-0.352 0.148t-0.148 0.352v1q0 0.203 0.148 0.352t0.352 0.148h1q0.203 0 0.352-0.148t0.148-0.352zM15 2.25v10.5q0 0.516-0.367 0.883t-0.883 0.367h-12.5q-0.516 0-0.883-0.367t-0.367-0.883v-10.5q0-0.516 0.367-0.883t0.883-0.367h12.5q0.516 0 0.883 0.367t0.367 0.883z"></path>
</svg>

<svg xmlns="http://www.w3.org/2000/svg" width="15" height="14" viewBox="0 0 15 14"><path fill="#444" d="M3 12.5v-1q0-.203-.148-.352T2.5 11h-1q-.203 0-.352.148T1 11.5v1q0 .203.148.352T1.5 13h1q.203 0 .352-.148T3 12.5zm0-3v-1q0-.203-.148-.352T2.5 8h-1q-.203 0-.352.148T1 8.5v1q0 .203.148.352T1.5 10h1q.203 0 .352-.148T3 9.5zm0-3v-1q0-.203-.148-.352T2.5 5h-1q-.203 0-.352.148T1 5.5v1q0 .203.148.352T1.5 7h1q.203 0 .352-.148T3 6.5zm8 6v-4q0-.203-.148-.352T10.5 8h-6q-.203 0-.352.148T4 8.5v4q0 .203.148.352T4.5 13h6q.203 0 .352-.148T11 12.5zm-8-9v-1q0-.203-.148-.352T2.5 2h-1q-.203 0-.352.148T1 2.5v1q0 .203.148.352T1.5 4h1q.203 0 .352-.148T3 3.5zm11 9v-1q0-.203-.148-.352T13.5 11h-1q-.203 0-.352.148T12 11.5v1q0 .203.148.352T12.5 13h1q.203 0 .352-.148T14 12.5zm-3-6v-4q0-.203-.148-.352T10.5 2h-6q-.203 0-.352.148T4 2.5v4q0 .203.148.352T4.5 7h6q.203 0 .352-.148T11 6.5zm3 3v-1q0-.203-.148-.352T13.5 8h-1q-.203 0-.352.148T12 8.5v1q0 .203.148.352T12.5 10h1q.203 0 .352-.148T14 9.5zm0-3v-1q0-.203-.148-.352T13.5 5h-1q-.203 0-.352.148T12 5.5v1q0 .203.148.352T12.5 7h1q.203 0 .352-.148T14 6.5zm0-3v-1q0-.203-.148-.352T13.5 2h-1q-.203 0-.352.148T12 2.5v1q0 .203.148.352T12.5 4h1q.203 0 .352-.148T14 3.5zm1-1.25v10.5q0 .516-.367.883T13.75 14H1.25q-.516 0-.883-.367T0 12.75V2.25q0-.516.367-.883T1.25 1h12.5q.516 0 .883.367T15 2.25z"/></svg>
